web_console_v2/client/src/assets/icons/workflow-completed.svg

<svg width="16" height="16" viewBox="0 0 16 16" fill="none" xmlns="http://www.w3.org/2000/svg">
<path fill-rule="evenodd" clip-rule="evenodd" d="M8.00008 0.666626C12.0502 0.666626 15.3334 3.94987 15.3334 7.99996C15.3334 12.0501 12.0502 15.3333 8.00008 15.3333C3.95 15.3333 0.666748 12.0501 0.666748 7.99996C0.666748 3.94987 3.95 0.666626 8.00008 0.666626Z" fill="#E8FFEA"/>
<path fill-rule="evenodd" clip-rule="evenodd" d="M10.4444 5.728L10.8274 6.04939C11.039 6.22679 11.0666 6.54217 10.8891 6.7537C10.8891 6.75374 10.8891 6.75377 10.8889 6.75372L7.54494 10.7367C7.36731 10.9481 7.052 10.9756 6.84042 10.7983L6.07437 10.1555L9.73985 5.78954C9.91748 5.57818 10.2328 5.55063 10.4444 5.728Z" fill="#00B42A"/>
<path fill-rule="evenodd" clip-rule="evenodd" d="M4.79233 8.37061L5.12781 7.99802C5.30967 7.79605 5.61956 7.77633 5.82556 7.95363L8.17738 9.97783L7.53751 10.7478C7.36101 10.9601 7.04576 10.9892 6.83339 10.8127C6.83077 10.8105 6.82817 10.8083 6.8256 10.8061L4.83653 9.0831C4.62781 8.9023 4.60517 8.58653 4.78598 8.37781C4.78807 8.37539 4.79019 8.37299 4.79233 8.37061Z" fill="#00B42A"/>
</svg>

<svg xmlns="http://www.w3.org/2000/svg" width="16" height="16" fill="none"><path fill="#E8FFEA" d="M8 .667a7.333 7.333 0 1 1 0 14.666A7.333 7.333 0 0 1 8 .667Z"/><path fill="#00B42A" d="m10.444 5.728.383.321a.5.5 0 0 1 .062.705l-3.344 3.983a.5.5 0 0 1-.705.061l-.766-.643L9.74 5.79a.5.5 0 0 1 .704-.062Z"/><path fill="#00B42A" d="m4.792 8.37.336-.372a.5.5 0 0 1 .698-.044l2.351 2.024-.64.77a.5.5 0 0 1-.711.058l-1.99-1.723a.5.5 0 0 1-.044-.712Z"/></svg>
